icons/3_Generic/P2P.svg

<svg width="1024" height="1024" viewBox="0 0 1024 1024" fill="none" xmlns="http://www.w3.org/2000/svg">
<g clip-path="url(#clip0_3_422)">
<path d="M512 1024C794.77 1024 1024 794.77 1024 512C1024 229.23 794.77 0 512 0C229.23 0 0 229.23 0 512C0 794.77 229.23 1024 512 1024Z" fill="#8C72BD"/>
<path d="M750.9 736.522H617.61C601.43 736.522 588.26 723.362 588.26 707.172V613.872C588.26 597.692 601.43 584.522 617.61 584.522H750.9C767.08 584.522 780.25 597.682 780.25 613.872V707.172C780.25 723.352 767.08 736.522 750.9 736.522ZM620.3 704.492H748.21V616.562H620.3V704.492ZM727.96 767.992C727.96 759.142 720.79 751.972 711.94 751.972H656.57C647.72 751.972 640.55 759.142 640.55 767.992C640.55 776.842 647.72 784.012 656.57 784.012H711.94C720.79 784.012 727.96 776.842 727.96 767.992ZM406.4 736.532H273.11C256.93 736.532 243.76 723.372 243.76 707.182V613.882C243.76 597.702 256.93 584.532 273.11 584.532H406.4C422.58 584.532 435.75 597.692 435.75 613.882V707.182C435.75 723.362 422.58 736.532 406.4 736.532ZM275.8 704.502H403.71V616.572H275.8V704.502ZM383.46 768.002C383.46 759.152 376.29 751.982 367.44 751.982H312.07C303.22 751.982 296.05 759.152 296.05 768.002C296.05 776.852 303.22 784.022 312.07 784.022H367.44C376.29 784.022 383.46 776.852 383.46 768.002ZM750.91 392.012H617.62C601.44 392.012 588.27 378.852 588.27 362.662V269.362C588.27 253.182 601.44 240.012 617.62 240.012H750.91C767.09 240.012 780.26 253.172 780.26 269.362V362.662C780.26 378.842 767.09 392.012 750.91 392.012ZM620.31 359.982H748.22V272.052H620.31V359.982ZM727.97 423.482C727.97 414.632 720.8 407.462 711.95 407.462H656.58C647.73 407.462 640.56 414.632 640.56 423.482C640.56 432.332 647.73 439.502 656.58 439.502H711.95C720.8 439.502 727.97 432.332 727.97 423.482ZM406.41 392.022H273.12C256.94 392.022 243.77 378.862 243.77 362.672V269.372C243.77 253.192 256.94 240.022 273.12 240.022H406.41C422.59 240.022 435.76 253.182 435.76 269.372V362.672C435.76 378.852 422.59 392.022 406.41 392.022ZM275.81 359.992H403.72V272.062H275.81V359.992ZM383.47 423.492C383.47 414.642 376.3 407.472 367.45 407.472H312.08C303.23 407.472 296.06 414.642 296.06 423.492C296.06 432.342 303.23 439.512 312.08 439.512H367.45C376.3 439.512 383.47 432.342 383.47 423.492ZM534.67 488.282L591.01 431.942C597.27 425.692 597.27 415.542 591.01 409.292C584.76 403.042 574.61 403.032 568.36 409.292L512.01 465.632L455.66 409.292C449.41 403.042 439.26 403.042 433.01 409.292C426.76 415.552 426.76 425.692 433.01 431.942L489.35 488.282L433.01 544.622C426.75 550.872 426.75 561.022 433.01 567.272C436.14 570.402 440.24 571.962 444.34 571.962C448.44 571.962 452.54 570.402 455.67 567.272L512.02 510.932L568.37 567.272C571.5 570.402 575.6 571.962 579.7 571.962C583.8 571.962 587.9 570.402 591.03 567.272C597.29 561.012 597.29 550.872 591.03 544.622L534.69 488.282H534.67Z" fill="white"/>
</g>
<defs>
<clipPath id="clip0_3_422">
<rect width="1024" height="1024" fill="white"/>
</clipPath>
</defs>
</svg>

<svg width="1024" height="1024" fill="none" xmlns="http://www.w3.org/2000/svg"><g clip-path="url(#a)"><path d="M512 1024c282.77 0 512-229.23 512-512S794.77 0 512 0 0 229.23 0 512s229.23 512 512 512Z" fill="#8C72BD"/><path d="M750.9 736.522H617.61c-16.18 0-29.35-13.16-29.35-29.35v-93.3c0-16.18 13.17-29.35 29.35-29.35H750.9c16.18 0 29.35 13.16 29.35 29.35v93.3c0 16.18-13.17 29.35-29.35 29.35Zm-130.6-32.03h127.91v-87.93H620.3v87.93Zm107.66 63.5c0-8.85-7.17-16.02-16.02-16.02h-55.37c-8.85 0-16.02 7.17-16.02 16.02s7.17 16.02 16.02 16.02h55.37c8.85 0 16.02-7.17 16.02-16.02Zm-321.56-31.46H273.11c-16.18 0-29.35-13.16-29.35-29.35v-93.3c0-16.18 13.17-29.35 29.35-29.35H406.4c16.18 0 29.35 13.16 29.35 29.35v93.3c0 16.18-13.17 29.35-29.35 29.35Zm-130.6-32.03h127.91v-87.93H275.8v87.93Zm107.66 63.5c0-8.85-7.17-16.02-16.02-16.02h-55.37c-8.85 0-16.02 7.17-16.02 16.02s7.17 16.02 16.02 16.02h55.37c8.85 0 16.02-7.17 16.02-16.02Zm367.45-375.99H617.62c-16.18 0-29.35-13.16-29.35-29.35v-93.3c0-16.18 13.17-29.35 29.35-29.35h133.29c16.18 0 29.35 13.16 29.35 29.35v93.3c0 16.18-13.17 29.35-29.35 29.35Zm-130.6-32.03h127.91v-87.93H620.31v87.93Zm107.66 63.5c0-8.85-7.17-16.02-16.02-16.02h-55.37c-8.85 0-16.02 7.17-16.02 16.02s7.17 16.02 16.02 16.02h55.37c8.85 0 16.02-7.17 16.02-16.02Zm-321.56-31.46H273.12c-16.18 0-29.35-13.16-29.35-29.35v-93.3c0-16.18 13.17-29.35 29.35-29.35h133.29c16.18 0 29.35 13.16 29.35 29.35v93.3c0 16.18-13.17 29.35-29.35 29.35Zm-130.6-32.03h127.91v-87.93H275.81v87.93Zm107.66 63.5c0-8.85-7.17-16.02-16.02-16.02h-55.37c-8.85 0-16.02 7.17-16.02 16.02s7.17 16.02 16.02 16.02h55.37c8.85 0 16.02-7.17 16.02-16.02Zm151.2 64.79 56.34-56.34c6.26-6.25 6.26-16.4 0-22.65-6.25-6.25-16.4-6.26-22.65 0l-56.35 56.34-56.35-56.34c-6.25-6.25-16.4-6.25-22.65 0-6.25 6.26-6.25 16.4 0 22.65l56.34 56.34-56.34 56.34c-6.26 6.25-6.26 16.4 0 22.65 3.13 3.13 7.23 4.69 11.33 4.69s8.2-1.56 11.33-4.69l56.35-56.34 56.35 56.34c3.13 3.13 7.23 4.69 11.33 4.69s8.2-1.56 11.33-4.69c6.26-6.26 6.26-16.4 0-22.65l-56.34-56.34h-.02Z" fill="#fff"/></g><defs><clipPath id="a"><path fill="#fff" d="M0 0h1024v1024H0z"/></clipPath></defs></svg>
